behanceround.svg

<?xml version="1.0" encoding="utf-8"?>
<!-- Generator: Adobe Illustrator 22.0.1, SVG Export Plug-In . SVG Version: 6.00 Build 0)  -->
<svg version="1.1" id="Layer_1" xmlns="http://www.w3.org/2000/svg" xmlns:xlink="http://www.w3.org/1999/xlink" x="0px" y="0px"
	 viewBox="0 0 48 48" style="enable-background:new 0 0 48 48;" xml:space="preserve">
<style type="text/css">
	.st0{fill:#FFFFFF;}
</style>
<path class="st0" d="M19.3,25.4c-0.4-0.2-1-0.3-1.8-0.3h-3.9V30h3.9c0.8,0,1.4-0.1,1.9-0.3c0.8-0.4,1.2-1.2,1.2-2.3
	C20.4,26.4,20,25.8,19.3,25.4z"/>
<path class="st0" d="M32.2,21.9c-0.9,0-1.6,0.3-2.1,0.8c-0.5,0.5-0.8,1.2-0.9,2h5.9v0c-0.1-0.9-0.4-1.6-0.9-2.1
	C33.7,22.2,33,21.9,32.2,21.9z"/>
<path class="st0" d="M19.3,21.6c0.5-0.3,0.7-0.8,0.7-1.6c0-0.9-0.3-1.4-1-1.7c-0.6-0.2-1.3-0.3-2.2-0.3h-3.4v4.1h3.9
	C18.2,22.1,18.8,21.9,19.3,21.6z"/>
<path class="st0" d="M24,0C10.7,0,0,10.7,0,24s10.7,24,24,24s24-10.7,24-24S37.3,0,24,0z M28.5,15.6h7.4v1.8h0h-7.4V15.6z
	 M23.5,30.6c-0.3,0.6-0.8,1.1-1.3,1.4c-0.6,0.4-1.3,0.8-2.1,0.9c-0.8,0.2-1.7,0.2-2.6,0.2H9.2V14.8h8.9c2.2,0,3.8,0.7,4.8,2
	c0.6,0.8,0.8,1.7,0.8,2.8c0,1.1-0.3,2-0.8,2.7c-0.3,0.4-0.8,0.7-1.4,1c0.9,0.3,1.6,0.9,2.1,1.6c0.5,0.7,0.7,1.6,0.7,2.7
	C24.3,28.7,24,29.7,23.5,30.6z M38.8,27h-9.6c0.1,1.3,0.5,2.2,1.4,2.8c0.5,0.3,1.2,0.5,1.9,0.5c0.8,0,1.4-0.2,1.9-0.6
	c0.3-0.2,0.5-0.5,0.7-0.9h3.5c-0.1,0.8-0.5,1.6-1.3,2.4c-1.2,1.3-2.8,1.9-4.9,1.9c-1.8,0-3.3-0.5-4.6-1.6c-1.3-1.1-2-2.8-2-5.3
	c0-2.3,0.6-4,1.8-5.2c1.2-1.2,2.8-1.8,4.7-1.8c1.1,0,2.2,0.2,3.1,0.6c0.9,0.4,1.7,1.1,2.3,1.9c0.5,0.8,0.9,1.7,1,2.7
	C38.7,25,38.8,25.9,38.8,27z"/>
</svg>

<?xml version="1.0" encoding="UTF-8"?>
<svg width="48px" height="48px" viewBox="0 0 48 48" version="1.1" xmlns="http://www.w3.org/2000/svg" xmlns:xlink="http://www.w3.org/1999/xlink">
    <!-- Generator: Sketch 54.1 (76490) - https://sketchapp.com -->
    <title>behanceround</title>
    <desc>Created with Sketch.</desc>
    <g id="Page-1" stroke="none" stroke-width="1" fill="none" fill-rule="evenodd">
        <g id="behanceround" fill="#222328" fill-rule="nonzero">
            <path d="M19.3,25.4 C18.9,25.2 18.3,25.1 17.5,25.1 L13.6,25.1 L13.6,30 L17.5,30 C18.3,30 18.9,29.9 19.4,29.7 C20.2,29.3 20.6,28.5 20.6,27.4 C20.4,26.4 20,25.8 19.3,25.4 Z" id="Path"></path>
            <path d="M32.2,21.9 C31.3,21.9 30.6,22.2 30.1,22.7 C29.6,23.2 29.3,23.9 29.2,24.7 L35.1,24.7 L35.1,24.7 C35,23.8 34.7,23.1 34.2,22.6 C33.7,22.2 33,21.9 32.2,21.9 Z" id="Path"></path>
            <path d="M19.3,21.6 C19.8,21.3 20,20.8 20,20 C20,19.1 19.7,18.6 19,18.3 C18.4,18.1 17.7,18 16.8,18 L13.4,18 L13.4,22.1 L17.3,22.1 C18.2,22.1 18.8,21.9 19.3,21.6 Z" id="Path"></path>
            <path d="M24,0 C10.7,0 0,10.7 0,24 C0,37.3 10.7,48 24,48 C37.3,48 48,37.3 48,24 C48,10.7 37.3,0 24,0 Z M28.5,15.6 L35.9,15.6 L35.9,17.4 L35.9,17.4 L28.5,17.4 L28.5,15.6 Z M23.5,30.6 C23.2,31.2 22.7,31.7 22.2,32 C21.6,32.4 20.9,32.8 20.1,32.9 C19.3,33.1 18.4,33.1 17.5,33.1 L9.2,33.1 L9.2,14.8 L18.1,14.8 C20.3,14.8 21.9,15.5 22.9,16.8 C23.5,17.6 23.7,18.5 23.7,19.6 C23.7,20.7 23.4,21.6 22.9,22.3 C22.6,22.7 22.1,23 21.5,23.3 C22.4,23.6 23.1,24.2 23.6,24.9 C24.1,25.6 24.3,26.5 24.3,27.6 C24.3,28.7 24,29.7 23.5,30.6 Z M38.8,27 L29.2,27 C29.3,28.3 29.7,29.2 30.6,29.8 C31.1,30.1 31.8,30.3 32.5,30.3 C33.3,30.3 33.9,30.1 34.4,29.7 C34.7,29.5 34.9,29.2 35.1,28.8 L38.6,28.8 C38.5,29.6 38.1,30.4 37.3,31.2 C36.1,32.5 34.5,33.1 32.4,33.1 C30.6,33.1 29.1,32.6 27.8,31.5 C26.5,30.4 25.8,28.7 25.8,26.2 C25.8,23.9 26.4,22.2 27.6,21 C28.8,19.8 30.4,19.2 32.3,19.2 C33.4,19.2 34.5,19.4 35.4,19.8 C36.3,20.2 37.1,20.9 37.7,21.7 C38.2,22.5 38.6,23.4 38.7,24.4 C38.7,25 38.8,25.9 38.8,27 Z" id="Shape"></path>
        </g>
    </g>
</svg>
